X:7
T: SCHLAF DU LIEBE KLEINE
N: K0028
O: Europa, Mitteleuropa, Deutschland, Elberfeld
R: Kinder -, Wiegen - Lied
M: 2/4
L: 1/16
K: F
 | c2A2f2d2 | c4A2z2 |
c2A2f2d2 | c4A2z2 |
G2c2A2F2 | E2F2G4 |
G2c2A2F2 | E2F2G4 |
F2A2c3B | A2G2F4

@@@ Tune index: 7344
